svgs/thin/badge-sheriff.svg

<svg xmlns="http://www.w3.org/2000/svg" viewBox="0 0 512 512"><!-- Font Awesome Pro 6.0.0-alpha2 by @fontawesome - https://fontawesome.com License - https://fontawesome.com/license (Commercial License) --><path d="M432 304C427.898 304 423.984 304.67 420.184 305.639L390.4 256L420.184 206.361C423.984 207.33 427.898 208 432 208C458.51 208 480 186.51 480 160S458.51 112 432 112C411.131 112 393.549 125.4 386.938 144H323.201L287.281 84.135C297.439 75.334 304 62.496 304 48C304 21.49 282.51 0 256 0S208 21.49 208 48C208 62.496 214.561 75.334 224.719 84.135L188.799 144H125.062C118.451 125.4 100.869 112 80 112C53.49 112 32 133.49 32 160S53.49 208 80 208C84.102 208 88.016 207.33 91.816 206.361L121.6 256L91.816 305.639C88.016 304.67 84.102 304 80 304C53.49 304 32 325.49 32 352S53.49 400 80 400C100.869 400 118.451 386.6 125.062 368H188.799L224.719 427.865C214.561 436.666 208 449.504 208 464C208 490.51 229.49 512 256 512S304 490.51 304 464C304 449.504 297.439 436.666 287.281 427.865L323.201 368H386.938C393.549 386.6 411.131 400 432 400C458.51 400 480 378.51 480 352S458.51 304 432 304ZM432 384C418.605 384 406.555 375.416 402.014 362.641L398.23 352H314.143L309.482 359.768L273.562 419.633L266.646 431.158L276.805 439.957C284.023 446.213 288 454.75 288 464C288 481.645 273.645 496 256 496S224 481.645 224 464C224 454.75 227.977 446.213 235.195 439.957L245.354 431.158L238.437 419.633L202.518 359.768L197.857 352H113.77L109.986 362.641C105.445 375.416 93.395 384 80 384C62.355 384 48 369.645 48 352S62.355 320 80 320C82.305 320 84.805 320.363 87.865 321.143L99.408 324.084L105.537 313.871L140.26 256L99.408 187.914L87.865 190.857C84.805 191.637 82.305 192 80 192C62.355 192 48 177.645 48 160S62.355 128 80 128C93.395 128 105.445 136.584 109.986 149.359L113.77 160H197.857L202.518 152.232L238.438 92.367L245.354 80.842L235.195 72.041C227.977 65.787 224 57.248 224 48C224 30.355 238.355 16 256 16S288 30.355 288 48C288 57.248 284.023 65.787 276.805 72.041L266.646 80.842L273.563 92.367L309.482 152.232L314.143 160H398.23L402.014 149.359C406.555 136.584 418.605 128 432 128C449.645 128 464 142.355 464 160S449.645 192 432 192C429.695 192 427.195 191.637 424.135 190.857L412.592 187.914L371.74 256L406.463 313.871L412.592 324.084L424.135 321.143C427.195 320.363 429.695 320 432 320C449.645 320 464 334.355 464 352S449.645 384 432 384ZM256 184C216.297 184 184 216.297 184 256S216.297 328 256 328S328 295.703 328 256S295.703 184 256 184ZM256 312C225.125 312 200 286.875 200 256S225.125 200 256 200S312 225.125 312 256S286.875 312 256 312Z"/></svg>

<svg xmlns="http://www.w3.org/2000/svg" viewBox="0 0 512 512"><!--! Font Awesome Pro 6.0.0-alpha3 by @fontawesome - https://fontawesome.com License - https://fontawesome.com/license (Commercial License) --><path d="M432 304c-4.102 0-8.016 .6699-11.82 1.639L390.4 256l29.78-49.64C423.1 207.3 427.9 208 432 208C458.5 208 480 186.5 480 160s-21.49-48-48-48c-20.87 0-38.45 13.4-45.06 32h-63.74l-35.98-59.81C297.4 75.39 304 62.5 304 48C304 21.49 282.5 0 256 0S208 21.49 208 48c0 14.5 6.679 27.43 16.84 36.23L188.8 144H125.1C118.5 125.4 100.9 112 80 112C53.49 112 32 133.5 32 160s21.49 48 48 48c4.102 0 8.016-.6699 11.82-1.639L121.6 256L91.82 305.6C88.02 304.7 84.1 304 80 304C53.49 304 32 325.5 32 352s21.49 48 48 48c20.87 0 38.45-13.4 45.06-32h63.74l35.98 59.81C214.6 436.6 208 449.5 208 464c0 26.51 21.49 48 48 48s48-21.49 48-48c0-14.5-6.679-27.43-16.84-36.23L323.2 368h63.74c6.611 18.6 24.19 32 45.06 32c26.51 0 48-21.49 48-48S458.5 304 432 304zM432 384c-13.39 0-25.45-8.584-29.99-21.36L398.2 352h-84.09l-47.5 79.16l10.16 8.799C284 446.2 288 454.8 288 464c0 17.64-14.36 32-32 32s-32-14.36-32-32c0-9.25 3.977-17.79 11.2-24.04l10.16-8.799L197.9 352H113.8l-3.783 10.64C105.4 375.4 93.39 384 80 384c-17.64 0-32-14.36-32-32s14.36-32 32-32c2.305 0 4.805 .3633 7.865 1.143l11.54 2.941L140.3 256L99.41 187.9l-11.54 2.943C84.8 191.6 82.3 192 80 192c-17.64 0-32-14.36-32-32s14.36-32 32-32c13.39 0 25.45 8.584 29.99 21.36L113.8 160h84.09l47.5-79.16L235.2 72.04C227.1 65.79 224 57.25 224 48c0-17.64 14.36-32 32-32s32 14.36 32 32c0 9.248-3.977 17.79-11.2 24.04l-10.16 8.801L314.1 160h84.09l3.783-10.64C406.6 136.6 418.6 128 432 128c17.64 0 32 14.36 32 32s-14.36 32-32 32c-2.305 0-4.805-.3633-7.865-1.143l-11.54-2.943L371.7 256l40.85 68.08l11.54-2.941C427.2 320.4 429.7 320 432 320c17.64 0 32 14.36 32 32S449.6 384 432 384zM256 184C216.3 184 184 216.3 184 256s32.3 72 72 72S328 295.7 328 256S295.7 184 256 184zM256 312C225.1 312 200 286.9 200 256S225.1 200 256 200S312 225.1 312 256S286.9 312 256 312z"/></svg>
